icons/command-fill.svg

<svg viewBox="0 0 24 24" fill="currentColor" xmlns="http://www.w3.org/2000/svg"><path d="M10 8H14V6.5C14 4.567 15.567 3 17.5 3C19.433 3 21 4.567 21 6.5C21 8.433 19.433 10 17.5 10H16V14H17.5C19.433 14 21 15.567 21 17.5C21 19.433 19.433 21 17.5 21C15.567 21 14 19.433 14 17.5V16H10V17.5C10 19.433 8.433 21 6.5 21C4.567 21 3 19.433 3 17.5C3 15.567 4.567 14 6.5 14H8V10H6.5C4.567 10 3 8.433 3 6.5C3 4.567 4.567 3 6.5 3C8.433 3 10 4.567 10 6.5V8ZM8 8V6.5C8 5.67157 7.32843 5 6.5 5C5.67157 5 5 5.67157 5 6.5C5 7.32843 5.67157 8 6.5 8H8ZM8 16H6.5C5.67157 16 5 16.6716 5 17.5C5 18.3284 5.67157 19 6.5 19C7.32843 19 8 18.3284 8 17.5V16ZM16 8H17.5C18.3284 8 19 7.32843 19 6.5C19 5.67157 18.3284 5 17.5 5C16.6716 5 16 5.67157 16 6.5V8ZM16 16V17.5C16 18.3284 16.6716 19 17.5 19C18.3284 19 19 18.3284 19 17.5C19 16.6716 18.3284 16 17.5 16H16ZM10 10V14H14V10H10Z"/></svg>

<svg xmlns="http://www.w3.org/2000/svg" viewBox="0 0 24 24">
    <g>
        <path fill="none" d="M0 0h24v24H0z"/>
        <path fill-rule="nonzero" d="M10 8h4V6.5a3.5 3.5 0 1 1 3.5 3.5H16v4h1.5a3.5 3.5 0 1 1-3.5 3.5V16h-4v1.5A3.5 3.5 0 1 1 6.5 14H8v-4H6.5A3.5 3.5 0 1 1 10 6.5V8zM8 8V6.5A1.5 1.5 0 1 0 6.5 8H8zm0 8H6.5A1.5 1.5 0 1 0 8 17.5V16zm8-8h1.5A1.5 1.5 0 1 0 16 6.5V8zm0 8v1.5a1.5 1.5 0 1 0 1.5-1.5H16zm-6-6v4h4v-4h-4z"/>
    </g>
</svg>
